X: 20
T: IF ALL THE WORLD WERE PAPER
B: "Old English Country Dances", Frank Kidson ed., William Reeves pub., London 1890
Z: 2010-9-26 John Chambers <jc:trillian.mit.edu>
M: 6/4
L: 1/4
K: C
G | A2G A2B | c3 D2D | E2D E2F | G3 G2 |
E | F2E F2G | AF2 D2c | d2G A2B | c3- c2 |]


%%sep 1 1 500

%%sep 1 1 500

